usr/share/icons/biglinux-icons-material-dark/22/actions/format-node-symmetric.svg

<svg xmlns="http://www.w3.org/2000/svg" viewBox="0 0 22 22">
<defs id="defs3051">
<style id="current-color-scheme" type="text/css">
.ColorScheme-Text{color:#dedede}.ColorScheme-Highlight{color:#3daee9}
</style>
</defs>
<path d="M3 9v3h3V9zm13 0v3h3V9zM4 10h1v1H4zm13 0h1v1h-1z" class="ColorScheme-Text" style="fill:currentColor;fill-opacity:1;stroke:none"/>
<path d="M9 8v2H6v1h3v1h4v-1h3v-1h-3V8zm1 1h2v2h-2z" class="ColorScheme-Highlight" style="fill:currentColor;fill-opacity:1;stroke:none"/>
</svg>

<svg xmlns="http://www.w3.org/2000/svg" viewBox="0 0 22 22">
  <defs id="defs3051">
    <style type="text/css" id="current-color-scheme">
      .ColorScheme-Text {
        color:#dedede;
      }
      .ColorScheme-Highlight {
        color:#3daee9;
      }
      </style>
  </defs>
 <path 
     style="fill:currentColor;fill-opacity:1;stroke:none" 
     d="M 3 9 L 3 12 L 6 12 L 6 9 L 3 9 z M 16 9 L 16 12 L 19 12 L 19 9 L 16 9 z M 4 10 L 5 10 L 5 11 L 4 11 L 4 10 z M 17 10 L 18 10 L 18 11 L 17 11 L 17 10 z "
     class="ColorScheme-Text"
     />
 <path 
     style="fill:currentColor;fill-opacity:1;stroke:none" 
     d="M 9 8 L 9 10 L 6 10 L 6 11 L 9 11 L 9 12 L 13 12 L 13 11 L 16 11 L 16 10 L 13 10 L 13 8 L 9 8 z M 10 9 L 12 9 L 12 11 L 10 11 L 10 9 z "
     class="ColorScheme-Highlight"
     />
</svg>
